X: 108
T: Fortuna d'un gran tempo
N: Derived from Mar3007-Fortuna_dun_gran_tempo.krn
C: Johannes Martini
%%abc-version 2.0
%%abcx-abcm2ps-target-version 5.9.1 (29 Sep 2008)
%%abc-creator hum2abc beta
%%abcx-conversion-date 2019/02/17 07:19:43
%%abc-edited-by Jesse Rodin
%%abc-edited-by Chris Gage 10-30-2014
%%abcx-initial-encoding-date 2015/03/01/
%%humdrum-veritas 2764520355
%%humdrum-veritas-data 575328296
%%linebreak <none>
%%barnumbers 0
L: 1/4
M: 3/1
Q: 1/2=120
%%staves [1 2 3 4]
V: 1 clef=treble
V: 2 clef=treble-8
V: 3 clef=treble-8
V: 4 clef=bass
K: F
[V:1] z12 | 
[V:2] z4z4d4 | 
[V:3] z12 | 
[V:4] z12 | 
[V:1] z12 | 
[V:2] d6c2B2A2 | 
[V:3] z12 | 
[V:4] z4z4D,4 | 
[V:1] z12 | 
[V:2] B4B2A4G2 | 
[V:3] z12 | 
[V:4] D,8C,4 | 
[V:1] z12 | 
[V:2] G6^FE^F4 | 
[V:3] z12 | 
[V:4] B,,8A,,4 | 
[V:1] z4z4d4 | 
[V:2] G8G4 | 
[V:3] z12 | 
[V:4] G,,8G,,4 | 
[V:1] d6c2B2A2 | 
[V:2] D4E4F4 | 
[V:3] z4z4d4 | 
[V:4] B,,6C,2D,4 | 
[V:1] B8A4 | 
[V:2] G8A4 | 
[V:3] d8c4 | 
[V:4] G,,8F,4 | 
[V:1] G6^FEF4 | 
[V:2] B4d6c2 | 
[V:3] B8A4 | 
[V:4] G,4D,8 | 
[V:1] G4B4A4 | 
[V:2] B6c2d4- | 
[V:3] G8A4 | 
[V:4] G,,8D,4 | 
[V:1] G4A6G2 | 
[V:2] d2e2f4d4 | 
[V:3] B4A4B4 | 
[V:4] G,4F,4G,4 | 
[V:1] G8^F4 | 
[V:2] e4d8 | 
[V:3] c4A8 | 
[V:4] C,4D,8 | 
[V:1] G8z4 | 
[V:2] B8c4 | 
[V:3] G8z4 | 
[V:4] _E,8E,4 | 
[V:1] A8A4 | 
[V:2] d6e2f4 | 
[V:3] z12 | 
[V:4] D,8D,4 | 
[V:1] A8B4 | 
[V:2] c4d8 | 
[V:3] z12 | 
[V:4] F,8G,4 | 
[V:1] c8d4 | 
[V:2] c8f4- | 
[V:3] A4A4A4 | 
[V:4] A,2G,2F,2E,2D,4 | 
[V:1] c6B2A4 | 
[V:2] f4c4d4 | 
[V:3] A8B4 | 
[V:4] F,8F,4 | 
[V:1] G8z4 | 
[V:2] e4d2e2f2d2 | 
[V:3] c4B4A4 | 
[V:4] C,4G,4D,4 | 
[V:1] z4A8 | 
[V:2] g8^f4 | 
[V:3] G4A8 | 
[V:4] E,4D,8 | 
[V:1] B6A2G4 | 
[V:2] g8d4 | 
[V:3] G8z4 | 
[V:4] G,,8G,,4 | 
[V:1] F4B4c4 | 
[V:2] d8c4 | 
[V:3] z12 | 
[V:4] B,,8A,,4 | 
[V:1] d8c4 | 
[V:2] B8A4 | 
[V:3] z12 | 
[V:4] G,,8F,4 | 
[V:1] B8A4 | 
[V:2] G8A4 | 
[V:3] z12 | 
[V:4] G,4E,4F,4 | 
[V:1] G4F4G4 | 
[V:2] B4A4B4 | 
[V:3] z12 | 
[V:4] G,4D,4G,4 | 
[V:1] A6E2^F4 | 
[V:2] c4A8 | 
[V:3] z12 | 
[V:4] F,6E,2D,4 | 
[V:1] G8z4 | 
[V:2] G8D4 | 
[V:3] z4z4d4 | 
[V:4] G,,8z4 | 
[V:1] z12 | 
[V:2] D6E2F4 | 
[V:3] d8c4 | 
[V:4] z12 | 
[V:1] z12 | 
[V:2] G4B4c4 | 
[V:3] B8A4 | 
[V:4] z12 | 
[V:1] z12 | 
[V:2] d6B2c2B2 | 
[V:3] G8A4 | 
[V:4] z12 | 
[V:1] d8d4 | 
[V:2] G4F4G4 | 
[V:3] B4A4B4 | 
[V:4] z12 | 
[V:1] c8A4 | 
[V:2] A4F6E2 | 
[V:3] c4A8 | 
[V:4] z12 | 
[V:1] B8A4 | 
[V:2] G8F4 | 
[V:3] G8z4 | 
[V:4] z4z4A,4 | 
[V:1] F6D2E4 | 
[V:2] D8z4 | 
[V:3] z12 | 
[V:4] A,8G,4 | 
[V:1] D8^C4 | 
[V:2] A2B2c2d2e4 | 
[V:3] z12 | 
[V:4] F,8E,4 | 
[V:1] D8z4 | 
[V:2] f8e4 | 
[V:3] A4A4A4 | 
[V:4] D,8E,4 | 
[V:1] A8G4 | 
[V:2] c8B4 | 
[V:3] A8B4 | 
[V:4] F,2E,2F,4G,4 | 
[V:1] G6FEF4 | 
[V:2] G4d4c4 | 
[V:3] c4B4A4 | 
[V:4] E,4D,4z4 | 
[V:1] G8^F4 | 
[V:2] d8c4 | 
[V:3] G4A8 | 
[V:4] z12 | 
[V:1] G4z4G4 | 
[V:2] B4c4B4 | 
[V:3] G8z4 | 
[V:4] _E,8E,4 | 
[V:1] G8A4 | 
[V:2] G4g6f2 | 
[V:3] z12 | 
[V:4] _E,8F,4 | 
[V:1] z4A4c4 | 
[V:2] e4d4c4 | 
[V:3] z12 | 
[V:4] G,4F,4E,4 | 
[V:1] B4G8 | 
[V:2] d6c2c2B2 | 
[V:3] z12 | 
[V:4] D,4_E,8 | 
[V:1] F6G2A4 | 
[V:2] d8c4 | 
[V:3] z12 | 
[V:4] D,8F,4 | 
[V:1] D8C4 | 
[V:2] B8A4 | 
[V:3] z12 | 
[V:4] G,4G,,4A,,4 | 
[V:1] B,4A,8 | 
[V:2] G8^F4 | 
[V:3] z4z4d4 | 
[V:4] B,,4C,4D,4 | 
[V:1] G,8z4 | 
[V:2] G4B4A4 | 
[V:3] d8c4 | 
[V:4] G,,8A,,4 | 
[V:1] D6E2F4 | 
[V:2] F4D4d4- | 
[V:3] B8A4 | 
[V:4] B,,6C,2D,4 | 
[V:1] G4B4c4 | 
[V:2] d4g4e4 | 
[V:3] G8A4 | 
[V:4] G,,8z4 | 
[V:1] d6c2B4 | 
[V:2] d8g4 | 
[V:3] B4A4B4 | 
[V:4] G,4F,4G,4 | 
[V:1] A8c4 | 
[V:2] e4f6e2 | 
[V:3] c4A8 | 
[V:4] A,8F,4 | 
[V:1] B6A2G4 | 
[V:2] d8c4 | 
[V:3] G8z4 | 
[V:4] G,4_E,8 | 
[V:1] F4B6A2 | 
[V:2] d8d4 | 
[V:3] z12 | 
[V:4] D,4G,6D,2 | 
[V:1] A8G4 | 
[V:2] c4B8 | 
[V:3] z12 | 
[V:4] F,4G,8 | 
[V:1] A8E4 | 
[V:2] A8z4 | 
[V:3] A4A4A4 | 
[V:4] D,8C,4 | 
[V:1] F8G4 | 
[V:2] z12 | 
[V:3] A8B4 | 
[V:4] D,6C,2B,,4 | 
[V:1] A4B4c4 | 
[V:2] e8e4 | 
[V:3] c4B4A4 | 
[V:4] A,,4G,,4A,,4 | 
[V:1] G4z4z4 | 
[V:2] e8f4 | 
[V:3] G4A8 | 
[V:4] C,8D,4 | 
[V:1] B4A4B4 | 
[V:2] g4f4e4 | 
[V:3] G8z4 | 
[V:4] E,4F,4G,4 | 
[V:1] d8^c4 | 
[V:2] d4e8 | 
[V:3] z12 | 
[V:4] B,4A,8 | 
[V:1] d12 | 
[V:2] d4d6c2 | 
[V:3] z12 | 
[V:4] D,4z4D,4 | 
[V:1] z12 | 
[V:2] B2A2B4A4 | 
[V:3] z12 | 
[V:4] D,8C,4 | 
[V:1] z12 | 
[V:2] G6^FE^F4 | 
[V:3] z12 | 
[V:4] B,,8A,,4 | 
[V:1] z4z4d4 | 
[V:2] G12 | 
[V:3] z12 | 
[V:4] G,,12 | 
[V:1] d6c2B2A2 | 
[V:2] B8G4 | 
[V:3] z4z4d4 | 
[V:4] G,8G,4 | 
[V:1] B8A4 | 
[V:2] g8f4 | 
[V:3] d8c4 | 
[V:4] G,6D,2F,4 | 
[V:1] G6^FEF4 | 
[V:2] d8d4 | 
[V:3] B8A4 | 
[V:4] G,4D,8 | 
[V:1] G8F4 | 
[V:2] B4c4d4 | 
[V:3] G8A4 | 
[V:4] _E,8D,4 | 
[V:1] D8z4 | 
[V:2] f6e2d4 | 
[V:3] B4A4B4 | 
[V:4] D,8G,4 | 
[V:1] z12 | 
[V:2] g6^fe^f4 | 
[V:3] c4A8 | 
[V:4] C,4D,8 | 
[V:1] B8B4 | 
[V:2] g6f2e2d2 | 
[V:3] G8z4 | 
[V:4] G,,8G,4 | 
[V:1] c6A2B4 | 
[V:2] f4d2e4d2 | 
[V:3] z12 | 
[V:4] A,8G,4 | 
[V:1] A4G8 | 
[V:2] d8^c4 | 
[V:3] z12 | 
[V:4] F,4E,8 | 
[V:1] F8z4 | 
[V:2] d8d4 | 
[V:3] A4A4A4 | 
[V:4] D,12 | 
[V:1] c8B4 | 
[V:2] c4f4e4 | 
[V:3] A8B4 | 
[V:4] F,8G,4 | 
[V:1] A4G4F4 | 
[V:2] f4e4d4 | 
[V:3] c4B4A4 | 
[V:4] F,4G,4D,4 | 
[V:1] G6^FEF4 | 
[V:2] c4d8 | 
[V:3] G4A8 | 
[V:4] E,4D,8 | 
[V:1] G12 |]  
[V:2] B12 |]  
[V:3] G12 |]  
[V:4] G,,12 |]  



